Numix-Circle/48x48/apps/vnclicensewiz.svg

<?xml version="1.0" encoding="UTF-8" standalone="no"?>
<svg
   xmlns:dc="http://purl.org/dc/elements/1.1/"
   xmlns:cc="http://creativecommons.org/ns#"
   xmlns:rdf="http://www.w3.org/1999/02/22-rdf-syntax-ns#"
   xmlns:svg="http://www.w3.org/2000/svg"
   xmlns="http://www.w3.org/2000/svg"
   xmlns:xlink="http://www.w3.org/1999/xlink"
   xmlns:sodipodi="http://sodipodi.sourceforge.net/DTD/sodipodi-0.dtd"
   xmlns:inkscape="http://www.inkscape.org/namespaces/inkscape"
   width="48"
   viewBox="0 0 13.546667 13.546667"
   height="48"
   id="svg2"
   version="1.1"
   inkscape:version="0.91 r"
   sodipodi:docname="vnclicensewiz.svg">
  <metadata
     id="metadata331">
    <rdf:RDF>
      <cc:Work
         rdf:about="">
        <dc:format>image/svg+xml</dc:format>
        <dc:type
           rdf:resource="http://purl.org/dc/dcmitype/StillImage" />
        <dc:title />
      </cc:Work>
    </rdf:RDF>
  </metadata>
  <sodipodi:namedview
     pagecolor="#ffffff"
     bordercolor="#666666"
     borderopacity="1"
     objecttolerance="10"
     gridtolerance="10"
     guidetolerance="10"
     inkscape:pageopacity="0"
     inkscape:pageshadow="2"
     inkscape:window-width="1366"
     inkscape:window-height="747"
     id="namedview329"
     showgrid="true"
     inkscape:zoom="12.614422"
     inkscape:cx="23.166744"
     inkscape:cy="22.549894"
     inkscape:window-x="0"
     inkscape:window-y="21"
     inkscape:window-maximized="1"
     inkscape:current-layer="layer2"
     inkscape:snap-to-guides="false"
     showguides="true"
     inkscape:guide-bbox="true">
    <inkscape:grid
       type="xygrid"
       id="grid3308" />
  </sodipodi:namedview>
  <defs
     id="defs4">
    <linearGradient
       id="custom">
      <stop
         id="stop4077"
         offset="0"
         style="stop-color:#f9e148;stop-opacity:1" />
      <stop
         id="stop4075"
         offset="1"
         style="stop-color:#fae45a;stop-opacity:1" />
    </linearGradient>
    <linearGradient
       id="linearGradient3764"
       x1="1"
       x2="47"
       gradientUnits="userSpaceOnUse"
       gradientTransform="matrix(0,-1,1,0,-1.5725959e-6,47.999998)">
      <stop
         stop-color="#e77301"
         stop-opacity="1"
         id="stop7" />
      <stop
         offset="1"
         stop-color="#fc7b01"
         stop-opacity="1"
         id="stop9" />
    </linearGradient>
    <linearGradient
       inkscape:collect="always"
       xlink:href="#custom"
       id="linearGradient4205"
       x1="1"
       y1="24"
       x2="47"
       y2="24"
       gradientUnits="userSpaceOnUse" />
  </defs>
  <g
     inkscape:groupmode="layer"
     id="layer1"
     inkscape:label="Shadow"
     sodipodi:insensitive="true">
    <path
       style="opacity:0.05;fill:#000000;fill-opacity:1;stroke:none"
       d="M 25,2 C 12.297451,2 2,12.297451 2,25 2,31.367153 4.6007106,37.116628 8.78125,41.28125 12.865755,44.99361 18.29568,47.25 24.25,47.25 c 12.702549,0 23,-10.297451 23,-23 0,-5.95432 -2.25639,-11.384245 -5.96875,-15.46875 C 37.116628,4.6007105 31.367153,2 25,2 z M 41.28125,8.78125 C 45.135604,12.894061 47.5,18.418655 47.5,24.5 c 0,12.702549 -10.297451,23 -23,23 C 18.418655,47.5 12.894061,45.135604 8.78125,41.28125 12.940939,45.4251 18.664604,48 25,48 37.702549,48 48,37.702549 48,25 48,18.664604 45.4251,12.940939 41.28125,8.78125 z"
       transform="scale(0.28222223,0.28222223)"
       id="path3978"
       inkscape:connector-curvature="0" />
    <path
       style="opacity:0.1;fill:#000000;fill-opacity:1;stroke:none"
       d="M 41.28125,8.78125 C 44.99361,12.865755 47.25,18.29568 47.25,24.25 c 0,12.702549 -10.297451,23 -23,23 -5.95432,0 -11.384245,-2.25639 -15.46875,-5.96875 C 12.894061,45.135604 18.418655,47.5 24.5,47.5 c 12.702549,0 23,-10.297451 23,-23 0,-6.081345 -2.364396,-11.605939 -6.21875,-15.71875 z"
       transform="scale(0.28222223,0.28222223)"
       id="path3976"
       inkscape:connector-curvature="0" />
    <path
       transform="matrix(4.3274074,0,0,3.2455556,117.19278,-35.348334)"
       d="m -24,13 a 1.5,2 0 1 1 -3,0 1.5,2 0 1 1 3,0 z"
       sodipodi:ry="2"
       sodipodi:rx="1.5"
       sodipodi:cy="13"
       sodipodi:cx="-25.5"
       id="path3952"
       style="opacity:0.2;fill:#000000;fill-opacity:1;stroke:none"
       sodipodi:type="arc" />
  </g>
  <g
     inkscape:groupmode="layer"
     id="layer2"
     inkscape:label="Base">
    <g
       transform="scale(0.28222222,0.28222222)"
       id="g29"
       style="fill-opacity:1.0;fill:url(#linearGradient4205)">
      <path
         style="fill:url(#linearGradient4205);fill-opacity:1.0"
         inkscape:connector-curvature="0"
         d="M 24,1 C 36.703,1 47,11.297 47,24 47,36.703 36.703,47 24,47 11.297,47 1,36.703 1,24 1,11.297 11.297,1 24,1 Z"
         id="path31" />
    </g>
    <path
       style="opacity:0.1;fill:#000000;fill-opacity:1;stroke:none"
       d="M 40.03125 7.53125 C 43.74361 11.615755 46 17.04568 46 23 C 46 35.702549 35.702549 46 23 46 C 17.04568 46 11.615755 43.74361 7.53125 40.03125 C 11.709416 44.322508 17.537578 47 24 47 C 36.702549 47 47 36.702549 47 24 C 47 17.537578 44.322508 11.709416 40.03125 7.53125 z "
       id="path4027"
       transform="scale(0.28222223,0.28222223)" />
    <use
       id="use102"
       xlink:href="#7"
       transform="matrix(0.39511112,0,0,0.39511112,7.9586669,-2.4271114)"
       style="opacity:0.2"
       x="0"
       y="0"
       width="744.09448"
       height="1052.3622" />
    <use
       id="use104-7"
       xlink:href="#7"
       transform="matrix(0.39511112,0,0,0.39511112,7.9586669,-2.7093336)"
       style="fill:#f9f9f9"
       x="0"
       y="0"
       width="744.09448"
       height="1052.3622" />
    <use
       id="use108-3"
       xlink:href="#7"
       transform="matrix(0.31044445,0,0,0.31044445,7.7046669,-0.67733354)"
       style="fill:#355464"
       x="0"
       y="0"
       width="744.09448"
       height="1052.3622" />
    <use
       id="use110"
       xlink:href="#7"
       transform="matrix(0.22577778,0,0,0.22577778,7.4506669,1.3546665)"
       style="fill:#566d80"
       x="0"
       y="0"
       width="744.09448"
       height="1052.3622" />
    <use
       id="use112"
       xlink:href="#7"
       transform="matrix(0.16933334,0,0,0.16933334,7.2813335,2.7093332)"
       style="fill:#355464"
       x="0"
       y="0"
       width="744.09448"
       height="1052.3622" />
    <use
       id="use114"
       xlink:href="#7"
       transform="matrix(0.05644445,0,0,0.05644445,6.9426669,4.5719999)"
       style="fill:url(#6-9)"
       x="0"
       y="0"
       width="744.09448"
       height="1052.3622" />
    <use
       id="use116"
       xlink:href="#7"
       transform="matrix(0.02822222,0,0,0.02822222,6.8580002,6.6604444)"
       style="fill:url(#radialGradient3922)"
       x="0"
       y="0"
       width="744.09448"
       height="1052.3622" />
  </g>
  <g
     inkscape:groupmode="layer"
     id="layer3"
     inkscape:label="Symbol">
    <g
       id="g33"
       transform="matrix(0.28222222,0,0,0.28222222,-11.755109,-0.32861598)" />
    <g
       id="g33-0"
       transform="matrix(0.28222222,0,0,0.28222222,-3.1331284,-0.86272633)" />
    <g
       id="g33-7"
       transform="matrix(0.28222222,0,0,0.28222222,-5.4822914,-1.0864561)" />
    <g
       transform="translate(0.28222224,0.2822227)"
       id="g4288-0"
       style="fill:#000000;fill-opacity:1;opacity:0.12">
      <path
         inkscape:connector-curvature="0"
         id="path8-3"
         d="M 10.042034,7.7519098 C 9.5857935,7.2877135 8.8053256,7.2023363 8.2841363,7.5537725 7.7629467,7.9052087 7.5842453,8.5447563 7.8570512,9.1326893 L 6.6686128,10.321513 C 6.2724662,10.717787 6.294968,11.143109 6.4705395,11.3122 6.6461459,11.481264 7.0647586,11.510337 7.4609051,11.114062 L 8.0551239,11.312199 7.6589779,10.51965 8.6493435,10.717787 8.4512705,10.123376 8.6493436,9.9252386 C 9.2325895,10.208297 9.8547962,10.037642 10.215388,9.5227821 10.575959,9.0079415 10.498275,8.2161057 10.042034,7.7519098 Z M 9.453996,8.3401399 c 0.1158225,0.1158608 0.1158126,0.2927875 0,0.4086384 -0.1158238,0.1158608 -0.2926929,0.115851 -0.4085058,0 -0.1158238,-0.1158608 -0.1158138,-0.2927874 0,-0.4086384 0.1158228,-0.1158609 0.292692,-0.1158509 0.4085058,0 z M 9.2559222,8.5382773 c 0.00437,0.00433 -0.016704,0.00432 -0.012377,0 0.00437,-0.00433 0.00437,0.016706 0,0.012384 -0.00437,-0.00433 0.016705,-0.00432 0.012377,0 -0.00437,0.00433 -0.00437,-0.016709 0,-0.012384 z"
         style="color:#000000;fill:#000000;fill-opacity:1" />
      <path
         inkscape:connector-curvature="0"
         d="m 2.54,3.9511115 1.0549236,0 1.4440318,4.4250935 1.4212205,-4.4250935 1.0663239,0 -1.981261,5.8246219 C 5.4654713,10.014014 5.2864171,10.158345 5.0422145,10.159978 4.7963811,10.162039 4.6124163,10.015704 4.5310132,9.7757334 L 2.54,3.9511115"
         style="fill:#000000;fill-opacity:1;fill-rule:evenodd;stroke:none"
         id="path43266-5-8" />
      <path
         inkscape:connector-curvature="0"
         d="m 7.62,6.7733335 0,-1.5844137 c 0,-0.6950944 0.6922711,-1.2473138 1.4296275,-1.2376841 0.7276826,0.011255 1.3925955,0.5506096 1.3925955,1.2376841 l 0,1.5844137 -0.6890529,0 0,-1.481691 c 0,-0.3627944 -0.3332651,-0.6260524 -0.7035426,-0.6308716 -0.3751072,-0.00644 -0.7260827,0.2600582 -0.7260827,0.6308716 l 0,1.481691 -0.7035448,0"
         style="fill:#000000;fill-opacity:1;fill-rule:evenodd;stroke:none"
         id="path43268-7-9" />
    </g>
    <g
       id="g4288">
      <path
         inkscape:connector-curvature="0"
         id="path8"
         d="M 10.042034,7.7519098 C 9.5857935,7.2877135 8.8053256,7.2023363 8.2841363,7.5537725 7.7629467,7.9052087 7.5842453,8.5447563 7.8570512,9.1326893 L 6.6686128,10.321513 C 6.2724662,10.717787 6.294968,11.143109 6.4705395,11.3122 6.6461459,11.481264 7.0647586,11.510337 7.4609051,11.114062 L 8.0551239,11.312199 7.6589779,10.51965 8.6493435,10.717787 8.4512705,10.123376 8.6493436,9.9252386 C 9.2325895,10.208297 9.8547962,10.037642 10.215388,9.5227821 10.575959,9.0079415 10.498275,8.2161057 10.042034,7.7519098 Z M 9.453996,8.3401399 c 0.1158225,0.1158608 0.1158126,0.2927875 0,0.4086384 -0.1158238,0.1158608 -0.2926929,0.115851 -0.4085058,0 -0.1158238,-0.1158608 -0.1158138,-0.2927874 0,-0.4086384 0.1158228,-0.1158609 0.292692,-0.1158509 0.4085058,0 z M 9.2559222,8.5382773 c 0.00437,0.00433 -0.016704,0.00432 -0.012377,0 0.00437,-0.00433 0.00437,0.016706 0,0.012384 -0.00437,-0.00433 0.016705,-0.00432 0.012377,0 -0.00437,0.00433 -0.00437,-0.016709 0,-0.012384 z"
         style="color:#000000;fill:#4747d8;fill-opacity:1" />
      <path
         inkscape:connector-curvature="0"
         d="m 2.54,3.9511115 1.0549236,0 1.4440318,4.4250935 1.4212205,-4.4250935 1.0663239,0 -1.981261,5.8246219 C 5.4654713,10.014014 5.2864171,10.158345 5.0422145,10.159978 4.7963811,10.162039 4.6124163,10.015704 4.5310132,9.7757334 L 2.54,3.9511115"
         style="fill:#f13e3e;fill-opacity:1;fill-rule:evenodd;stroke:none"
         id="path43266-5" />
      <path
         inkscape:connector-curvature="0"
         d="m 7.62,6.7733335 0,-1.5844137 c 0,-0.6950944 0.6922711,-1.2473138 1.4296275,-1.2376841 0.7276826,0.011255 1.3925955,0.5506096 1.3925955,1.2376841 l 0,1.5844137 -0.6890529,0 0,-1.481691 c 0,-0.3627944 -0.3332651,-0.6260524 -0.7035426,-0.6308716 -0.3751072,-0.00644 -0.7260827,0.2600582 -0.7260827,0.6308716 l 0,1.481691 -0.7035448,0"
         style="fill:#49d74a;fill-opacity:1;fill-rule:evenodd;stroke:none"
         id="path43268-7" />
    </g>
  </g>
</svg>

<svg xmlns="http://www.w3.org/2000/svg" width="48" viewBox="0 0 13.546667 13.546667" height="48"><defs><linearGradient id="linearGradient4205" x1="1" x2="47" gradientUnits="userSpaceOnUse"><stop stop-color="#f9e148" stop-opacity="1"/><stop offset="1" stop-color="#fae45a" stop-opacity="1"/></linearGradient></defs><g><path d="m 25 2 c -12.703 0 -23 10.297 -23 23 0 6.367 2.601 12.12 6.781 16.281 4.085 3.712 9.514 5.969 15.469 5.969 c 12.703 0 23 -10.297 23 -23 0 -5.954 -2.256 -11.384 -5.969 -15.469 c -4.165 -4.181 -9.914 -6.781 -16.281 -6.781 z m 16.281 6.781 c 3.854 4.113 6.219 9.637 6.219 15.719 c 0 12.703 -10.297 23 -23 23 c -6.081 0 -11.606 -2.364 -15.719 -6.219 4.16 4.144 9.883 6.719 16.219 6.719 12.703 0 23 -10.297 23 -23 0 -6.335 -2.575 -12.06 -6.719 -16.219 z" transform="scale(0.28222223,0.28222223)" opacity="0.05" fill="#000" stroke="none" fill-opacity="1"/><path d="m 41.28 8.781 c 3.712 4.085 5.969 9.514 5.969 15.469 c 0 12.703 -10.297 23 -23 23 -5.954 0 -11.384 -2.256 -15.469 -5.969 c 4.113 3.854 9.637 6.219 15.719 6.219 c 12.703 0 23 -10.297 23 -23 0 -6.081 -2.364 -11.606 -6.219 -15.719 z" transform="scale(0.28222223,0.28222223)" opacity="0.1" fill="#000" stroke="none" fill-opacity="1"/><path transform="matrix(4.3274074,0,0,3.2455556,117.19278,-35.348334)" d="m -24 13 a 1.5 2 0 1 1 -3 0 1.5 2 0 1 1 3 0 z" opacity="0.2" fill="#000" stroke="none" fill-opacity="1"/></g><g><g transform="scale(0.28222222,0.28222222)" fill="url(#linearGradient4205)" fill-opacity="1"><path d="M 24,1 C 36.703,1 47,11.297 47,24 47,36.703 36.703,47 24,47 11.297,47 1,36.703 1,24 1,11.297 11.297,1 24,1 Z" fill-opacity="1"/></g><path d="m 40.03 7.531 c 3.712 4.085 5.969 9.514 5.969 15.469 c 0 12.703 -10.297 23 -23 23 c -5.954 0 -11.384 -2.256 -15.469 -5.969 c 4.178 4.291 10.01 6.969 16.469 6.969 c 12.703 0 23 -10.297 23 -23 c 0 -6.462 -2.677 -12.291 -6.969 -16.469 z" transform="scale(0.28222223,0.28222223)" opacity="0.1" fill="#000" stroke="none" fill-opacity="1"/></g><g><g transform="translate(0.28222224,0.2822227)" opacity="0.12" fill="#000" fill-opacity="1"><path d="m 10.04 7.752 c -0.456 -0.464 -1.237 -0.55 -1.758 -0.198 -0.521 0.351 -0.7 0.991 -0.427 1.579 l -1.188 1.189 c -0.396 0.396 -0.374 0.822 -0.198 0.991 0.176 0.169 0.594 0.198 0.99 -0.198 l 0.594 0.198 -0.396 -0.793 0.99 0.198 -0.198 -0.594 0.198 -0.198 c 0.583 0.283 1.205 0.112 1.566 -0.402 0.361 -0.515 0.283 -1.307 -0.173 -1.771 m -0.588 0.588 c 0.116 0.116 0.116 0.293 0 0.409 -0.116 0.116 -0.293 0.116 -0.409 0 -0.116 -0.116 -0.116 -0.293 0 -0.409 0.116 -0.116 0.293 -0.116 0.409 0 z m -0.198 0.198 c 0.004 0.004 -0.017 0.004 -0.012 0 0.004 -0.004 0.004 0.017 0 0.012 -0.004 -0.004 0.017 -0.004 0.012 0 -0.004 0.004 -0.004 -0.017 0 -0.012 z" fill="#000" color="#000"/><path d="m 2.54 3.951 1.055 0 1.444 4.425 1.421 -4.425 1.066 0 -1.981 5.825 c -0.08 0.238 -0.259 0.383 -0.503 0.384 -0.246 0.002 -0.43 -0.144 -0.511 -0.384 l -1.991 -5.825" fill="#000" fill-rule="evenodd" stroke="none"/><path d="m 7.62 6.773 0 -1.584 c 0 -0.695 0.692 -1.247 1.43 -1.238 0.728 0.011 1.393 0.551 1.393 1.238 l 0 1.584 -0.689 0 0 -1.482 c 0 -0.363 -0.333 -0.626 -0.704 -0.631 -0.375 -0.006 -0.726 0.26 -0.726 0.631 l 0 1.482 -0.704 0" fill="#000" fill-rule="evenodd" stroke="none"/></g><g><path d="m 10.04 7.752 c -0.456 -0.464 -1.237 -0.55 -1.758 -0.198 -0.521 0.351 -0.7 0.991 -0.427 1.579 l -1.188 1.189 c -0.396 0.396 -0.374 0.822 -0.198 0.991 0.176 0.169 0.594 0.198 0.99 -0.198 l 0.594 0.198 -0.396 -0.793 0.99 0.198 -0.198 -0.594 0.198 -0.198 c 0.583 0.283 1.205 0.112 1.566 -0.402 0.361 -0.515 0.283 -1.307 -0.173 -1.771 m -0.588 0.588 c 0.116 0.116 0.116 0.293 0 0.409 -0.116 0.116 -0.293 0.116 -0.409 0 -0.116 -0.116 -0.116 -0.293 0 -0.409 0.116 -0.116 0.293 -0.116 0.409 0 z m -0.198 0.198 c 0.004 0.004 -0.017 0.004 -0.012 0 0.004 -0.004 0.004 0.017 0 0.012 -0.004 -0.004 0.017 -0.004 0.012 0 -0.004 0.004 -0.004 -0.017 0 -0.012 z" fill="#4747d8" fill-opacity="1" color="#000"/><path d="m 2.54 3.951 1.055 0 1.444 4.425 1.421 -4.425 1.066 0 -1.981 5.825 c -0.08 0.238 -0.259 0.383 -0.503 0.384 -0.246 0.002 -0.43 -0.144 -0.511 -0.384 l -1.991 -5.825" fill="#f13e3e" fill-rule="evenodd" stroke="none" fill-opacity="1"/><path d="m 7.62 6.773 0 -1.584 c 0 -0.695 0.692 -1.247 1.43 -1.238 0.728 0.011 1.393 0.551 1.393 1.238 l 0 1.584 -0.689 0 0 -1.482 c 0 -0.363 -0.333 -0.626 -0.704 -0.631 -0.375 -0.006 -0.726 0.26 -0.726 0.631 l 0 1.482 -0.704 0" fill="#49d74a" fill-rule="evenodd" stroke="none" fill-opacity="1"/></g></g></svg>
